%
 ( Darcy File created: Saturday September 03 2022 - 12:13 PM)
( for LinuxCNC )
( Material Size) ( X= 50.000, Y= 50.000, Z= 1.000)
G91 (Incremental distance mode)
G17 G21 (Active Plane: XY)(MM Mode)
G40 G49 G80(Tool Diameter, Length compensation & canned cycles off)
G64 P0.05 Q0.05(Path Blending)
G90 (absolute distance mode)
T1 M06 (V-Bit 60 deg 6 mm)
G43 H1
M03 S5000
G54 (Coordinate System)
G00 X2.434 Y-3.164 Z20.000 F300.0
G00 X2.434 Y-3.164 Z2.000 
G01 Z-0.283 F100.0 M3 G4 P2
G01 X2.683 Y-3.150 Z-0.260 F150.0
G01 X3.371 Y-3.150 
G01 X3.460 Y-3.164 Z-0.283
G01 X3.475 Y-3.217 Z-0.230
G01 X3.468 Y-3.333 Z-0.177
G01 X2.760 Y-5.453 Z-0.170
G01 X2.624 Y-5.552 Z0.000
G01 X2.760 Y-5.453 Z-0.170
G01 X2.831 Y-5.552 Z0.000
G01 X2.760 Y-5.453 Z-0.170
G01 X3.468 Y-3.333 Z-0.177
G01 X3.475 Y-3.217 Z-0.230
G01 X3.460 Y-3.164 Z-0.283
G01 X3.604 Y-3.060 Z-0.104
G01 X3.664 Y-3.000 Z0.000
G01 X3.604 Y-3.060 Z-0.104
G01 X3.460 Y-3.164 Z-0.283
G01 X3.371 Y-3.150 Z-0.260
G01 X2.673 Y-3.150 Z-0.261
G01 X2.434 Y-3.164 Z-0.283
G01 X2.324 Y-3.000 Z0.000
G01 X2.434 Y-3.164 Z-0.283
G01 X2.324 Y-3.270 Z-0.176
G01 X2.205 Y-3.429 Z-0.088
G01 X2.126 Y-3.574 Z-0.055
G01 X2.084 Y-3.592 Z0.000
G01 X2.126 Y-3.574 Z-0.055
G01 X2.138 Y-3.612 Z0.000
G01 X2.126 Y-3.574 Z-0.055
G01 X2.214 Y-3.415 Z-0.094
G01 X2.352 Y-3.240 Z-0.201
G01 X2.434 Y-3.164 Z-0.283
G00 Z20.000
G00 X1.257 Y-4.276  
G00 X1.257 Y-4.276 Z2.000 
G01 Z-0.316 F100.0 M3 G4 P2
G01 X1.380 Y-4.405 Z-0.309 F150.0
G01 X1.460 Y-4.586 Z-0.286
G01 X1.483 Y-4.734 Z-0.246
G01 X1.470 Y-4.935 Z-0.200
G01 X1.400 Y-5.120 Z-0.151
G01 X1.339 Y-5.209 Z-0.131
G01 X1.235 Y-5.314 Z-0.118
G01 X1.072 Y-5.410 Z-0.105
G01 X0.898 Y-5.451 Z-0.117
G01 X0.708 Y-5.447 Z-0.159
G01 X0.462 Y-5.389 Z-0.245
G01 X0.376 Y-5.359 Z-0.245
G01 X0.349 Y-5.347 Z-0.227
G01 X0.300 Y-5.223 Z0.000
G01 X0.349 Y-5.347 Z-0.227
G01 X0.253 Y-5.253 Z0.000
G01 X0.338 Y-5.344 Z-0.213
G01 X0.220 Y-5.297 Z0.000
G01 X0.318 Y-5.341 Z-0.183
G01 X0.209 Y-5.347 Z0.000
G01 X0.343 Y-5.346 Z-0.221
G01 X0.232 Y-5.417 Z0.000
G01 X0.349 Y-5.347 Z-0.227
G01 X0.376 Y-5.359 Z-0.245
G01 X0.301 Y-5.482 Z0.000
G01 X0.376 Y-5.359 Z-0.245
G01 X0.462 Y-5.389 Z-0.245
G01 X0.734 Y-5.450 Z-0.151
G01 X0.898 Y-5.451 Z-0.117
G01 X1.072 Y-5.410 Z-0.105
G01 X1.235 Y-5.314 Z-0.118
G01 X1.363 Y-5.179 Z-0.142
G01 X1.446 Y-5.018 Z-0.175
G01 X1.479 Y-4.880 Z-0.210
G01 X1.477 Y-4.671 Z-0.266
G01 X1.435 Y-4.510 Z-0.299
G01 X1.365 Y-4.382 Z-0.313
G01 X1.257 Y-4.276 Z-0.316
G01 X1.101 Y-4.186 Z-0.308
G01 X1.102 Y-4.044 Z-0.116
G01 X1.129 Y-3.983 Z-0.089
G01 X1.190 Y-3.912 Z-0.103
G01 X1.276 Y-3.774 Z-0.159
G01 X1.332 Y-3.612 Z-0.228
G01 X1.344 Y-3.492 Z-0.270
G01 X1.319 Y-3.364 Z-0.296
G01 X1.251 Y-3.252 Z-0.296
G01 X1.127 Y-3.146 Z-0.278
G01 X0.987 Y-3.094 Z-0.242
G01 X0.796 Y-3.081 Z-0.205
G01 X0.611 Y-3.134 Z-0.160
G01 X0.482 Y-3.225 Z-0.114
G01 X0.373 Y-3.343 Z-0.081
G01 X0.298 Y-3.460 Z-0.063
G01 X0.248 Y-3.476 Z0.000
G01 X0.298 Y-3.460 Z-0.063
G01 X0.309 Y-3.505 Z0.000
G01 X0.298 Y-3.460 Z-0.063
G01 X0.418 Y-3.287 Z-0.104
G01 X0.496 Y-3.213 Z-0.119
G01 X0.636 Y-3.122 Z-0.168
G01 X0.796 Y-3.081 Z-0.205
G01 X0.987 Y-3.094 Z-0.242
G01 X1.127 Y-3.146 Z-0.278
G01 X1.251 Y-3.252 Z-0.296
G01 X1.334 Y-3.407 Z-0.291
G01 X1.343 Y-3.550 Z-0.256
G01 X1.317 Y-3.671 Z-0.209
G01 X1.252 Y-3.820 Z-0.144
G01 X1.180 Y-3.925 Z-0.099
G01 X1.124 Y-3.989 Z-0.088
G01 X1.098 Y-4.070 Z-0.143
G01 X1.101 Y-4.186 Z-0.308
G01 X0.970 Y-4.201 Z-0.195
G01 X0.788 Y-4.218 Z-0.089
G01 X0.661 Y-4.228 Z-0.054
G01 X0.630 Y-4.204 Z0.000
G01 X0.661 Y-4.228 Z-0.054
G01 X0.630 Y-4.259 Z0.000
G01 X0.661 Y-4.228 Z-0.054
G01 X0.852 Y-4.208 Z-0.120
G01 X1.036 Y-4.192 Z-0.248
G01 X1.101 Y-4.186 Z-0.308
G01 X1.257 Y-4.276 Z-0.316
G00 Z20.000
G00 X-0.631 Y-4.276  
G00 X-0.631 Y-4.276 Z2.000 
G01 Z-0.316 F100.0 M3 G4 P2
G01 X-0.508 Y-4.405 Z-0.309 F150.0
G01 X-0.428 Y-4.586 Z-0.286
G01 X-0.405 Y-4.734 Z-0.246
G01 X-0.418 Y-4.935 Z-0.200
G01 X-0.488 Y-5.120 Z-0.151
G01 X-0.549 Y-5.209 Z-0.131
G01 X-0.653 Y-5.314 Z-0.118
G01 X-0.816 Y-5.410 Z-0.105
G01 X-0.990 Y-5.451 Z-0.117
G01 X-1.180 Y-5.447 Z-0.159
G01 X-1.426 Y-5.389 Z-0.245
G01 X-1.512 Y-5.359 Z-0.245
G01 X-1.539 Y-5.347 Z-0.227
G01 X-1.588 Y-5.223 Z0.000
G01 X-1.539 Y-5.347 Z-0.227
G01 X-1.635 Y-5.253 Z0.000
G01 X-1.550 Y-5.344 Z-0.213
G01 X-1.668 Y-5.297 Z0.000
G01 X-1.570 Y-5.341 Z-0.183
G01 X-1.679 Y-5.347 Z0.000
G01 X-1.545 Y-5.346 Z-0.221
G01 X-1.656 Y-5.417 Z0.000
G01 X-1.539 Y-5.347 Z-0.227
G01 X-1.512 Y-5.359 Z-0.245
G01 X-1.587 Y-5.482 Z0.000
G01 X-1.512 Y-5.359 Z-0.245
G01 X-1.426 Y-5.389 Z-0.245
G01 X-1.154 Y-5.450 Z-0.151
G01 X-0.990 Y-5.451 Z-0.117
G01 X-0.816 Y-5.410 Z-0.105
G01 X-0.653 Y-5.314 Z-0.118
G01 X-0.525 Y-5.179 Z-0.142
G01 X-0.442 Y-5.018 Z-0.175
G01 X-0.409 Y-4.880 Z-0.210
G01 X-0.411 Y-4.671 Z-0.266
G01 X-0.452 Y-4.510 Z-0.299
G01 X-0.523 Y-4.382 Z-0.313
G01 X-0.631 Y-4.276 Z-0.316
G01 X-0.787 Y-4.186 Z-0.308
G01 X-0.786 Y-4.044 Z-0.116
G01 X-0.759 Y-3.983 Z-0.089
G01 X-0.698 Y-3.912 Z-0.103
G01 X-0.612 Y-3.774 Z-0.159
G01 X-0.556 Y-3.612 Z-0.228
G01 X-0.544 Y-3.492 Z-0.270
G01 X-0.569 Y-3.364 Z-0.296
G01 X-0.637 Y-3.252 Z-0.296
G01 X-0.761 Y-3.146 Z-0.278
G01 X-0.901 Y-3.094 Z-0.242
G01 X-1.091 Y-3.081 Z-0.205
G01 X-1.277 Y-3.134 Z-0.160
G01 X-1.406 Y-3.225 Z-0.114
G01 X-1.515 Y-3.343 Z-0.081
G01 X-1.590 Y-3.460 Z-0.063
G01 X-1.640 Y-3.476 Z0.000
G01 X-1.590 Y-3.460 Z-0.063
G01 X-1.579 Y-3.505 Z0.000
G01 X-1.590 Y-3.460 Z-0.063
G01 X-1.470 Y-3.287 Z-0.104
G01 X-1.392 Y-3.213 Z-0.119
G01 X-1.252 Y-3.122 Z-0.168
G01 X-1.091 Y-3.081 Z-0.205
G01 X-0.901 Y-3.094 Z-0.242
G01 X-0.761 Y-3.146 Z-0.278
G01 X-0.637 Y-3.252 Z-0.296
G01 X-0.554 Y-3.407 Z-0.291
G01 X-0.545 Y-3.550 Z-0.256
G01 X-0.571 Y-3.671 Z-0.209
G01 X-0.636 Y-3.820 Z-0.144
G01 X-0.708 Y-3.925 Z-0.099
G01 X-0.764 Y-3.989 Z-0.088
G01 X-0.790 Y-4.070 Z-0.143
G01 X-0.787 Y-4.186 Z-0.308
G01 X-0.918 Y-4.201 Z-0.195
G01 X-1.100 Y-4.218 Z-0.089
G01 X-1.227 Y-4.228 Z-0.054
G01 X-1.258 Y-4.204 Z0.000
G01 X-1.227 Y-4.228 Z-0.054
G01 X-1.258 Y-4.259 Z0.000
G01 X-1.227 Y-4.228 Z-0.054
G01 X-1.036 Y-4.208 Z-0.120
G01 X-0.852 Y-4.192 Z-0.248
G01 X-0.787 Y-4.186 Z-0.308
G01 X-0.631 Y-4.276 Z-0.316
G00 Z20.000
G00 X-2.450 Y-4.709  
G00 X-2.450 Y-4.709 Z2.000 
G01 Z-0.348 F100.0 M3 G4 P2
G01 X-2.400 Y-4.709 Z-0.287 F150.0
G01 X-2.298 Y-4.709 Z-0.227
G01 X-2.093 Y-4.709 
G01 X-1.963 Y-4.840 Z0.000
G01 X-2.093 Y-4.709 Z-0.227
G01 X-1.963 Y-4.578 Z0.000
G01 X-2.093 Y-4.709 Z-0.227
G01 X-2.298 Y-4.709 
G01 X-2.400 Y-4.709 Z-0.287
G01 X-2.450 Y-4.709 Z-0.348
G01 X-2.450 Y-4.578 Z-0.263
G01 X-2.450 Y-3.337 
G01 X-2.474 Y-3.217 Z-0.305
G01 X-2.432 Y-3.082 Z-0.231
G01 X-2.298 Y-2.948 Z0.000
G01 X-2.432 Y-3.082 Z-0.231
G01 X-2.501 Y-2.948 Z0.000
G01 X-2.432 Y-3.082 Z-0.231
G01 X-2.474 Y-3.217 Z-0.305
G01 X-2.589 Y-3.242 Z-0.167
G01 X-2.660 Y-3.297 Z-0.121
G01 X-3.534 Y-4.540 Z-0.115
G01 X-3.561 Y-4.635 Z-0.172
G01 X-3.661 Y-4.604 Z0.000
G01 X-3.561 Y-4.635 Z-0.172
G01 X-3.526 Y-4.705 Z-0.234
G01 X-3.661 Y-4.840 Z0.000
G01 X-3.526 Y-4.705 Z-0.234
G01 X-2.602 Y-4.709 Z-0.227
G01 X-2.501 Y-4.709 Z-0.287
G01 X-2.450 Y-4.709 Z-0.348
G01 X-2.450 Y-4.840 Z-0.263
G01 X-2.450 Y-5.348 
G01 X-2.602 Y-5.500 Z0.000
G01 X-2.450 Y-5.348 Z-0.263
G01 X-2.298 Y-5.500 Z0.000
G01 X-2.450 Y-5.348 Z-0.263
G01 X-2.450 Y-4.840 
G01 X-2.450 Y-4.709 Z-0.348
G00 Z20.000
G00 X-2.450 Y-4.709 Z2.000 
G01 Z-0.348 F100.0 M3 G4 P2
G01 X-2.501 Y-4.709 Z-0.287 F150.0
G01 X-2.602 Y-4.709 Z-0.227
G01 X-3.526 Y-4.705 Z-0.234
G01 X-3.561 Y-4.635 Z-0.172
G01 X-3.534 Y-4.540 Z-0.115
G01 X-2.660 Y-3.297 Z-0.121
G01 X-2.589 Y-3.242 Z-0.167
G01 X-2.474 Y-3.217 Z-0.305
G01 X-2.450 Y-3.337 Z-0.263
G01 X-2.450 Y-4.578 
G01 X-2.450 Y-4.709 Z-0.348
G00 Z20.000
G00 X-5.117 Y-3.164  
G00 X-5.117 Y-3.164 Z2.000 
G01 Z-0.283 F100.0 M3 G4 P2
G01 X-4.868 Y-3.150 Z-0.260 F150.0
G01 X-4.180 Y-3.150 
G01 X-4.091 Y-3.164 Z-0.283
G01 X-4.077 Y-3.217 Z-0.230
G01 X-4.083 Y-3.333 Z-0.177
G01 X-4.791 Y-5.453 Z-0.170
G01 X-4.927 Y-5.552 Z0.000
G01 X-4.791 Y-5.453 Z-0.170
G01 X-4.721 Y-5.552 Z0.000
G01 X-4.791 Y-5.453 Z-0.170
G01 X-4.083 Y-3.333 Z-0.177
G01 X-4.077 Y-3.217 Z-0.230
G01 X-4.091 Y-3.164 Z-0.283
G01 X-3.948 Y-3.060 Z-0.104
G01 X-3.887 Y-3.000 Z0.000
G01 X-3.948 Y-3.060 Z-0.104
G01 X-4.091 Y-3.164 Z-0.283
G01 X-4.180 Y-3.150 Z-0.260
G01 X-4.879 Y-3.150 Z-0.261
G01 X-5.117 Y-3.164 Z-0.283
G01 X-5.228 Y-3.000 Z0.000
G01 X-5.117 Y-3.164 Z-0.283
G01 X-5.227 Y-3.270 Z-0.176
G01 X-5.346 Y-3.429 Z-0.088
G01 X-5.426 Y-3.574 Z-0.055
G01 X-5.467 Y-3.592 Z0.000
G01 X-5.426 Y-3.574 Z-0.055
G01 X-5.414 Y-3.612 Z0.000
G01 X-5.426 Y-3.574 Z-0.055
G01 X-5.338 Y-3.415 Z-0.094
G01 X-5.200 Y-3.240 Z-0.201
G01 X-5.117 Y-3.164 Z-0.283
G00 Z20.000
G00 X-6.133 Y-3.429  
G00 X-6.133 Y-3.429 Z2.000 
G01 Z-0.310 F100.0 M3 G4 P2
G01 X-6.085 Y-3.603 Z-0.288 F150.0
G01 X-6.090 Y-3.789 Z-0.249
G01 X-6.133 Y-3.968 Z-0.209
G01 X-6.260 Y-4.237 Z-0.161
G01 X-6.444 Y-4.504 Z-0.118
G01 X-6.822 Y-4.932 Z-0.094
G01 X-7.066 Y-5.179 Z-0.107
G01 X-7.109 Y-5.284 Z-0.186
G01 X-7.108 Y-5.347 Z-0.265
G01 X-7.366 Y-5.452 Z-0.083
G01 X-7.414 Y-5.432 Z0.000
G01 X-7.366 Y-5.452 Z-0.083
G01 X-7.414 Y-5.500 Z0.000
G01 X-7.366 Y-5.452 Z-0.083
G01 X-7.108 Y-5.347 Z-0.265
G01 X-7.022 Y-5.361 Z-0.241
G01 X-6.362 Y-5.361 Z-0.241
G01 X-6.044 Y-5.350 Z-0.260
G01 X-5.939 Y-5.500 Z0.000
G01 X-6.044 Y-5.350 Z-0.260
G01 X-5.900 Y-5.197 Z-0.116
G01 X-5.814 Y-5.054 Z-0.061
G01 X-5.764 Y-5.019 Z0.000
G01 X-5.814 Y-5.054 Z-0.061
G01 X-5.832 Y-5.019 Z0.000
G01 X-5.814 Y-5.054 Z-0.061
G01 X-5.910 Y-5.210 Z-0.125
G01 X-6.044 Y-5.350 Z-0.260
G01 X-6.369 Y-5.361 Z-0.241
G01 X-7.022 Y-5.361 
G01 X-7.108 Y-5.347 Z-0.265
G01 X-7.109 Y-5.284 Z-0.186
G01 X-7.066 Y-5.179 Z-0.107
G01 X-6.819 Y-4.929 Z-0.094
G01 X-6.499 Y-4.573 Z-0.116
G01 X-6.307 Y-4.313 Z-0.142
G01 X-6.179 Y-4.081 Z-0.189
G01 X-6.122 Y-3.934 Z-0.219
G01 X-6.085 Y-3.761 Z-0.257
G01 X-6.085 Y-3.603 Z-0.288
G01 X-6.133 Y-3.429 Z-0.310
G01 X-6.243 Y-3.272 Z-0.304
G01 X-6.372 Y-3.172 Z-0.288
G01 X-6.510 Y-3.114 Z-0.269
G01 X-6.713 Y-3.093 Z-0.238
G01 X-6.844 Y-3.116 Z-0.226
G01 X-6.954 Y-3.156 Z-0.197
G01 X-7.114 Y-3.274 Z-0.149
G01 X-7.229 Y-3.436 Z-0.098
G01 X-7.297 Y-3.618 Z-0.064
G01 X-7.342 Y-3.654 Z0.000
G01 X-7.297 Y-3.618 Z-0.064
G01 X-7.274 Y-3.654 Z0.000
G01 X-7.297 Y-3.618 Z-0.064
G01 X-7.229 Y-3.436 Z-0.098
G01 X-7.114 Y-3.274 Z-0.149
G01 X-6.942 Y-3.149 Z-0.200
G01 X-6.742 Y-3.095 Z-0.236
G01 X-6.584 Y-3.100 Z-0.255
G01 X-6.410 Y-3.152 Z-0.286
G01 X-6.264 Y-3.253 Z-0.301
G01 X-6.155 Y-3.387 Z-0.307
G01 X-6.133 Y-3.429 Z-0.310
G00 Z20.000
G00 X-7.820 Y-4.421  
G00 X-7.820 Y-4.421 Z2.000 
G01 Z-0.316 F100.0 M3 G4 P2
G01 X-7.814 Y-4.135 Z-0.308 F150.0
G01 X-7.824 Y-3.955 Z-0.307
G01 X-7.857 Y-3.715 Z-0.279
G01 X-7.919 Y-3.504 Z-0.248
G01 X-8.007 Y-3.311 Z-0.198
G01 X-8.095 Y-3.181 Z-0.157
G01 X-8.219 Y-3.071 Z-0.118
G01 X-8.325 Y-3.024 Z-0.107
G01 X-8.448 Y-3.012 Z-0.104
G01 X-8.594 Y-3.047 Z-0.115
G01 X-8.728 Y-3.138 Z-0.145
G01 X-8.874 Y-3.329 Z-0.202
G01 X-8.977 Y-3.586 Z-0.263
G01 X-9.041 Y-3.897 Z-0.305
G01 X-9.065 Y-4.317 Z-0.310
G01 X-9.048 Y-4.575 Z-0.298
G01 X-8.990 Y-4.880 Z-0.266
G01 X-8.930 Y-5.055 Z-0.231
G01 X-8.837 Y-5.236 Z-0.186
G01 X-8.729 Y-5.369 Z-0.146
G01 X-8.663 Y-5.419 Z-0.120
G01 X-8.553 Y-5.469 Z-0.102
G01 X-8.432 Y-5.485 Z-0.100
G01 X-8.291 Y-5.449 Z-0.113
G01 X-8.182 Y-5.383 Z-0.124
G01 X-8.051 Y-5.254 Z-0.173
G01 X-7.940 Y-5.043 Z-0.232
G01 X-7.860 Y-4.760 Z-0.286
G01 X-7.820 Y-4.421 Z-0.316
G00 Z20.000
G00 X-7.820 Y-4.421 Z2.000 
G01 Z-0.316 F100.0 M3 G4 P2
G01 X-7.860 Y-4.760 Z-0.286 F150.0
G01 X-7.949 Y-5.066 Z-0.224
G01 X-8.070 Y-5.278 Z-0.164
G01 X-8.201 Y-5.397 Z-0.119
G01 X-8.330 Y-5.465 Z-0.105
G01 X-8.455 Y-5.485 Z-0.100
G01 X-8.601 Y-5.454 Z-0.116
G01 X-8.683 Y-5.406 Z-0.125
G01 X-8.780 Y-5.313 Z-0.156
G01 X-8.865 Y-5.187 Z-0.194
G01 X-8.949 Y-5.005 Z-0.238
G01 X-9.011 Y-4.796 Z-0.274
G01 X-9.057 Y-4.487 Z-0.308
G01 X-9.058 Y-4.073 Z-0.314
G01 X-9.014 Y-3.736 Z-0.289
G01 X-8.930 Y-3.450 Z-0.233
G01 X-8.806 Y-3.225 Z-0.172
G01 X-8.706 Y-3.121 Z-0.137
G01 X-8.567 Y-3.036 Z-0.110
G01 X-8.425 Y-3.010 Z-0.105
G01 X-8.304 Y-3.030 Z-0.109
G01 X-8.195 Y-3.086 Z-0.126
G01 X-8.069 Y-3.214 Z-0.163
G01 X-7.958 Y-3.406 Z-0.215
G01 X-7.919 Y-3.504 Z-0.248
G01 X-7.852 Y-3.744 Z-0.281
G01 X-7.824 Y-3.955 Z-0.307
G01 X-7.812 Y-4.228 Z-0.316
G01 X-7.820 Y-4.421 Z-0.316
G00 Z20.000
G00 X-5.747 Y3.605  
G00 X-5.747 Y3.605 Z2.000 
G01 Z-0.500 F100.0 M3 G4 P2
G01 X-5.682 Y3.663  F150.0
G01 X-5.570 Y3.815 
G01 X-5.476 Y4.009 
G01 X-5.414 Y4.238 
G01 X-5.392 Y4.495 
G01 X-5.403 Y4.680 
G01 X-5.435 Y4.854 
G01 X-5.488 Y5.017 
G01 X-5.560 Y5.167 
G01 X-5.651 Y5.300 
G01 X-5.785 Y5.434 
G01 X-5.974 Y5.636 Z-0.380
G01 X-6.141 Y5.755 Z-0.293
G01 X-6.319 Y5.836 Z-0.223
G01 X-6.427 Y5.869 Z-0.189
G01 X-6.660 Y5.905 Z-0.157
G01 X-6.981 Y5.915 Z-0.148
G01 X-7.102 Y5.872 Z-0.221
G01 X-7.270 Y5.711 Z-0.500
G01 X-7.422 Y5.711 
G01 X-7.608 Y5.856 Z-0.250
G01 X-7.706 Y5.904 Z-0.166
G01 X-7.803 Y5.935 Z-0.112
G01 X-7.908 Y5.954 Z-0.080
G01 X-8.084 Y5.959 Z-0.071
G01 X-8.125 Y6.000 Z0.000
G01 X-8.084 Y5.959 Z-0.071
G01 X-8.125 Y5.918 Z0.000
G01 X-8.084 Y5.959 Z-0.071
G01 X-7.896 Y5.952 Z-0.083
G01 X-7.783 Y5.930 Z-0.120
G01 X-7.673 Y5.890 Z-0.190
G01 X-7.538 Y5.809 Z-0.332
G01 X-7.422 Y5.711 Z-0.500
G01 X-7.421 Y3.289 
G01 X-7.597 Y3.151 Z-0.261
G01 X-7.705 Y3.096 Z-0.166
G01 X-7.804 Y3.063 Z-0.110
G01 X-7.906 Y3.046 Z-0.080
G01 X-8.084 Y3.041 Z-0.071
G01 X-8.125 Y3.082 Z0.000
G01 X-8.084 Y3.041 Z-0.071
G01 X-8.125 Y3.000 Z0.000
G01 X-8.084 Y3.041 Z-0.071
G01 X-7.894 Y3.047 Z-0.082
G01 X-7.782 Y3.069 Z-0.119
G01 X-7.673 Y3.110 Z-0.191
G01 X-7.523 Y3.202 Z-0.351
G01 X-7.421 Y3.289 Z-0.500
G01 X-7.255 Y3.289 
G01 X-7.106 Y3.170 Z-0.294
G01 X-6.970 Y3.109 Z-0.190
G01 X-6.838 Y3.086 Z-0.149
G01 X-6.724 Y3.083 Z-0.141
G01 X-6.531 Y3.095 Z-0.153
G01 X-6.351 Y3.137 Z-0.182
G01 X-6.178 Y3.210 Z-0.235
G01 X-6.009 Y3.321 Z-0.320
G01 X-5.838 Y3.482 Z-0.430
G01 X-5.747 Y3.605 Z-0.500
G00 Z20.000
G00 X-7.255 Y3.289  
G00 X-7.255 Y3.289 Z2.000 
G01 Z-0.500 F100.0 M3 G4 P2
G01 X-7.270 Y3.478  F150.0
G01 X-7.270 Y5.711 
G01 X-7.102 Y5.872 Z-0.221
G01 X-6.977 Y5.915 Z-0.148
G01 X-6.643 Y5.903 Z-0.159
G01 X-6.398 Y5.862 Z-0.195
G01 X-6.256 Y5.811 Z-0.242
G01 X-6.113 Y5.737 Z-0.306
G01 X-5.974 Y5.636 Z-0.380
G01 X-5.837 Y5.500 Z-0.462
G01 X-5.785 Y5.434 Z-0.500
G01 X-5.730 Y5.302 
G01 X-5.663 Y5.049 
G01 X-5.625 Y4.774 
G01 X-5.613 Y4.472 
G01 X-5.631 Y4.107 
G01 X-5.687 Y3.779 
G01 X-5.747 Y3.605 
G01 X-5.838 Y3.482 Z-0.430
G01 X-6.009 Y3.321 Z-0.320
G01 X-6.209 Y3.196 Z-0.223
G01 X-6.376 Y3.128 Z-0.178
G01 X-6.550 Y3.093 Z-0.150
G01 X-6.783 Y3.084 Z-0.145
G01 X-6.936 Y3.101 Z-0.175
G01 X-7.062 Y3.145 Z-0.252
G01 X-7.205 Y3.242 Z-0.420
G01 X-7.255 Y3.289 Z-0.500
G00 Z20.000
G00 X-2.325 Y3.289  
G00 X-2.325 Y3.289 Z2.000 
G01 Z-0.500 F100.0 M3 G4 P2
G01 X-3.263 Y5.398  F150.0
G01 X-3.261 Y6.030 Z-0.056
G01 X-3.240 Y6.062 Z0.000
G01 X-3.261 Y6.030 Z-0.056
G01 X-3.282 Y6.062 Z0.000
G01 X-3.261 Y6.030 Z-0.056
G01 X-3.263 Y5.398 Z-0.500
G01 X-3.333 Y5.242 
G01 X-3.527 Y5.185 Z-0.235
G01 X-3.627 Y5.085 Z-0.147
G01 X-4.088 Y4.053 Z-0.149
G01 X-4.104 Y3.962 Z-0.189
G01 X-4.165 Y3.887 Z-0.146
G01 X-4.351 Y3.460 Z-0.166
G01 X-4.402 Y3.291 Z-0.224
G01 X-4.424 Y3.177 Z-0.306
G01 X-4.540 Y3.120 Z-0.207
G01 X-4.711 Y3.065 Z-0.113
G01 X-4.830 Y3.047 Z-0.082
G01 X-4.877 Y3.082 Z0.000
G01 X-4.830 Y3.047 Z-0.082
G01 X-4.877 Y3.000 Z0.000
G01 X-4.830 Y3.047 Z-0.082
G01 X-4.688 Y3.071 Z-0.123
G01 X-4.499 Y3.137 Z-0.238
G01 X-4.424 Y3.177 Z-0.306
G01 X-4.338 Y3.124 Z-0.214
G01 X-4.193 Y3.069 Z-0.119
G01 X-4.076 Y3.052 Z-0.090
G01 X-3.923 Y3.043 Z-0.075
G01 X-3.879 Y3.000 Z0.000
G01 X-3.923 Y3.043 Z-0.075
G01 X-3.879 Y3.082 Z0.000
G01 X-3.923 Y3.043 Z-0.075
G01 X-4.085 Y3.053 Z-0.092
G01 X-4.230 Y3.079 Z-0.137
G01 X-4.338 Y3.124 Z-0.214
G01 X-4.424 Y3.177 Z-0.306
G01 X-4.390 Y3.337 Z-0.200
G01 X-4.351 Y3.460 Z-0.166
G01 X-4.164 Y3.888 Z-0.146
G01 X-4.104 Y3.962 Z-0.189
G01 X-4.010 Y3.936 Z-0.142
G01 X-3.103 Y3.936 
G01 X-3.028 Y3.953 Z-0.172
G01 X-2.816 Y4.050 Z-0.500
G01 X-2.762 Y3.967 
G01 X-2.522 Y3.392 
G01 X-2.505 Y3.289 
G01 X-2.660 Y3.144 Z-0.250
G01 X-2.777 Y3.079 Z-0.137
G01 X-2.930 Y3.047 Z-0.082
G01 X-3.102 Y3.041 Z-0.071
G01 X-3.143 Y3.082 Z0.000
G01 X-3.102 Y3.041 Z-0.071
G01 X-3.143 Y3.000 Z0.000
G01 X-3.102 Y3.041 Z-0.071
G01 X-2.917 Y3.049 Z-0.084
G01 X-2.777 Y3.079 Z-0.137
G01 X-2.660 Y3.144 Z-0.250
G01 X-2.505 Y3.289 Z-0.500
G01 X-2.325 Y3.289 
G01 X-2.178 Y3.199 Z-0.345
G01 X-1.948 Y3.087 Z-0.151
G01 X-1.824 Y3.054 Z-0.094
G01 X-1.737 Y3.045 Z-0.078
G01 X-1.691 Y3.000 Z0.000
G01 X-1.737 Y3.045 Z-0.078
G01 X-1.691 Y3.082 Z0.000
G01 X-1.737 Y3.045 Z-0.078
G01 X-1.843 Y3.058 Z-0.100
G01 X-1.986 Y3.102 Z-0.176
G01 X-2.214 Y3.220 Z-0.380
G01 X-2.325 Y3.289 Z-0.500
G00 Z20.000
G00 X-3.333 Y5.242  
G00 X-3.333 Y5.242 Z2.000 
G01 Z-0.500 F100.0 M3 G4 P2
G01 X-3.285 Y5.165  F150.0
G01 X-2.838 Y4.132 
G01 X-2.816 Y4.050 
G01 X-3.028 Y3.953 Z-0.172
G01 X-3.103 Y3.936 Z-0.142
G01 X-4.010 Y3.936 
G01 X-4.104 Y3.962 Z-0.189
G01 X-4.088 Y4.053 Z-0.149
G01 X-3.627 Y5.086 Z-0.147
G01 X-3.527 Y5.185 Z-0.235
G01 X-3.333 Y5.242 Z-0.500
G00 Z20.000
G00 X-0.862 Y5.711  
G00 X-0.862 Y5.711 Z2.000 
G01 Z-0.500 F100.0 M3 G4 P2
G01 X-0.859 Y3.318  F150.0
G01 X-0.862 Y3.289 
G01 X-1.058 Y3.139 Z-0.241
G01 X-1.159 Y3.091 Z-0.157
G01 X-1.258 Y3.061 Z-0.106
G01 X-1.379 Y3.046 Z-0.079
G01 X-1.514 Y3.042 Z-0.073
G01 X-1.556 Y3.082 Z0.000
G01 X-1.514 Y3.042 Z-0.073
G01 X-1.556 Y3.000 Z0.000
G01 X-1.514 Y3.042 Z-0.073
G01 X-1.370 Y3.047 Z-0.081
G01 X-1.236 Y3.066 Z-0.115
G01 X-1.127 Y3.104 Z-0.180
G01 X-0.991 Y3.184 Z-0.318
G01 X-0.862 Y3.289 Z-0.500
G01 X-0.715 Y3.289 
G01 X-0.519 Y3.139 Z-0.240
G01 X-0.417 Y3.090 Z-0.155
G01 X-0.317 Y3.061 Z-0.105
G01 X-0.197 Y3.046 Z-0.079
G01 X-0.063 Y3.042 Z-0.073
G01 X-0.021 Y3.000 Z0.000
G01 X-0.063 Y3.042 Z-0.073
G01 X-0.021 Y3.082 Z0.000
G01 X-0.063 Y3.042 Z-0.073
G01 X-0.206 Y3.046 Z-0.080
G01 X-0.339 Y3.066 Z-0.113
G01 X-0.449 Y3.103 Z-0.178
G01 X-0.586 Y3.183 Z-0.317
G01 X-0.715 Y3.289 Z-0.500
G01 X-0.726 Y4.367 
G01 X-0.715 Y4.446 
G01 X-0.542 Y4.446 Z-0.227
G01 X-0.437 Y4.446 Z-0.136
G01 X-0.240 Y4.448 Z-0.139
G01 X-0.155 Y4.428 Z-0.181
G01 X0.169 Y4.289 Z-0.500
G01 X0.876 Y3.289 
G01 X0.727 Y3.000 Z0.000
G01 X0.876 Y3.289 Z-0.500
G01 X0.987 Y3.289 
G01 X1.393 Y3.093 Z-0.162
G01 X1.549 Y3.052 Z-0.091
G01 X1.627 Y3.045 Z-0.078
G01 X1.671 Y3.000 Z0.000
G01 X1.627 Y3.045 Z-0.078
G01 X1.671 Y3.082 Z0.000
G01 X1.627 Y3.045 Z-0.078
G01 X1.533 Y3.055 Z-0.096
G01 X1.393 Y3.093 Z-0.162
G01 X0.987 Y3.289 Z-0.500
G01 X0.268 Y4.318 
G01 X0.377 Y4.502 Z-0.316
G01 X0.420 Y4.548 Z-0.304
G01 X0.553 Y4.648 Z-0.368
G01 X0.701 Y4.789 Z-0.500
G01 X0.769 Y4.837 
G01 X0.879 Y4.986 
G01 X0.905 Y5.071 
G01 X0.909 Y5.259 
G01 X0.860 Y5.403 
G01 X0.762 Y5.529 
G01 X0.700 Y5.580 Z-0.497
G01 X0.563 Y5.715 Z-0.382
G01 X0.416 Y5.803 Z-0.282
G01 X0.273 Y5.859 Z-0.213
G01 X0.127 Y5.892 Z-0.167
G01 X-0.029 Y5.911 Z-0.144
G01 X-0.437 Y5.919 Z-0.140
G01 X-0.551 Y5.879 Z-0.210
G01 X-0.726 Y5.711 Z-0.500
G01 X-0.862 Y5.711 
G01 X-1.058 Y5.861 Z-0.240
G01 X-1.161 Y5.910 Z-0.155
G01 X-1.260 Y5.939 Z-0.105
G01 X-1.381 Y5.954 Z-0.079
G01 X-1.514 Y5.958 Z-0.073
G01 X-1.556 Y6.000 Z0.000
G01 X-1.514 Y5.958 Z-0.073
G01 X-1.556 Y5.918 Z0.000
G01 X-1.514 Y5.958 Z-0.073
G01 X-1.372 Y5.954 Z-0.080
G01 X-1.238 Y5.934 Z-0.113
G01 X-1.128 Y5.897 Z-0.178
G01 X-0.991 Y5.817 Z-0.317
G01 X-0.862 Y5.711 Z-0.500
G00 Z20.000
G00 X0.704 Y5.575  
G00 X0.704 Y5.575 Z2.000 
G01 Z-0.500 F100.0 M3 G4 P2
G01 X0.753 Y5.368  F150.0
G01 X0.766 Y5.162 
G01 X0.738 Y4.886 
G01 X0.701 Y4.789 
G01 X0.553 Y4.648 Z-0.368
G01 X0.412 Y4.539 Z-0.303
G01 X0.377 Y4.502 Z-0.316
G01 X0.268 Y4.318 Z-0.500
G01 X0.169 Y4.289 
G01 X-0.155 Y4.428 Z-0.181
G01 X-0.240 Y4.448 Z-0.139
G01 X-0.437 Y4.446 Z-0.136
G01 X-0.542 Y4.446 Z-0.227
G01 X-0.715 Y4.446 Z-0.500
G01 X-0.726 Y4.524 
G01 X-0.726 Y5.711 
G01 X-0.551 Y5.879 Z-0.210
G01 X-0.437 Y5.919 Z-0.140
G01 X-0.017 Y5.910 Z-0.145
G01 X0.147 Y5.888 Z-0.172
G01 X0.304 Y5.850 Z-0.227
G01 X0.459 Y5.782 Z-0.309
G01 X0.643 Y5.643 Z-0.450
G01 X0.704 Y5.575 Z-0.500
G00 Z20.000
G00 X2.505 Y3.530  
G00 X2.505 Y3.530 Z2.000 
G01 Z-0.500 F100.0 M3 G4 P2
G01 X2.431 Y3.727  F150.0
G01 X2.346 Y4.117 
G01 X2.318 Y4.539 
G01 X2.328 Y4.768 
G01 X2.358 Y4.986 
G01 X2.464 Y5.351 
G01 X2.610 Y5.548 Z-0.419
G01 X2.744 Y5.674 Z-0.361
G01 X2.902 Y5.785 Z-0.306
G01 X3.140 Y5.897 Z-0.237
G01 X3.310 Y5.943 Z-0.202
G01 X3.598 Y5.965 Z-0.166
G01 X3.791 Y5.941 Z-0.152
G01 X3.960 Y5.894 Z-0.151
G01 X4.125 Y5.827 Z-0.168
G01 X4.295 Y5.742 Z-0.217
G01 X4.412 Y5.687 Z-0.291
G01 X4.463 Y5.671 Z-0.334
G01 X4.537 Y5.439 Z-0.205
G01 X4.582 Y5.242 Z-0.129
G01 X4.606 Y5.078 Z-0.086
G01 X4.570 Y5.029 Z0.000
G01 X4.606 Y5.078 Z-0.086
G01 X4.656 Y5.029 Z0.000
G01 X4.606 Y5.078 Z-0.086
G01 X4.580 Y5.253 Z-0.132
G01 X4.532 Y5.460 Z-0.215
G01 X4.463 Y5.671 Z-0.334
G01 X4.558 Y5.823 Z-0.170
G01 X4.600 Y5.957 Z-0.098
G01 X4.607 Y6.020 Z-0.084
G01 X4.656 Y6.069 Z0.000
G01 X4.607 Y6.020 Z-0.084
G01 X4.570 Y6.069 Z0.000
G01 X4.607 Y6.020 Z-0.084
G01 X4.596 Y5.939 Z-0.104
G01 X4.558 Y5.823 Z-0.170
G01 X4.463 Y5.671 Z-0.334
G01 X4.349 Y5.712 Z-0.247
G01 X4.248 Y5.764 Z-0.199
G01 X4.089 Y5.842 Z-0.163
G01 X3.922 Y5.907 Z-0.153
G01 X3.760 Y5.946 Z-0.155
G01 X3.598 Y5.965 Z-0.166
G01 X3.310 Y5.943 Z-0.202
G01 X3.073 Y5.871 Z-0.258
G01 X2.845 Y5.748 Z-0.321
G01 X2.710 Y5.644 Z-0.372
G01 X2.587 Y5.521 Z-0.430
G01 X2.464 Y5.351 Z-0.500
G01 X2.285 Y5.113 
G01 X2.203 Y4.951 
G01 X2.146 Y4.786 
G01 X2.112 Y4.618 
G01 X2.100 Y4.444 
G01 X2.110 Y4.281 
G01 X2.141 Y4.123 
G01 X2.193 Y3.969 
G01 X2.265 Y3.820 
G01 X2.354 Y3.684 
G01 X2.515 Y3.518 Z-0.496
G01 X2.695 Y3.329 Z-0.398
G01 X2.910 Y3.182 Z-0.299
G01 X3.092 Y3.104 Z-0.243
G01 X3.251 Y3.063 Z-0.210
G01 X3.442 Y3.040 Z-0.188
G01 X3.745 Y3.053 Z-0.166
G01 X4.025 Y3.126 Z-0.157
G01 X4.282 Y3.267 Z-0.153
G01 X4.515 Y3.470 Z-0.157
G01 X4.605 Y3.431 Z0.000
G01 X4.515 Y3.470 Z-0.157
G01 X4.605 Y3.690 Z0.000
G01 X4.515 Y3.470 Z-0.157
G01 X4.274 Y3.261 Z-0.152
G01 X4.019 Y3.124 Z-0.157
G01 X3.734 Y3.051 Z-0.166
G01 X3.402 Y3.043 Z-0.189
G01 X3.221 Y3.068 Z-0.217
G01 X3.022 Y3.130 Z-0.266
G01 X2.846 Y3.218 Z-0.329
G01 X2.646 Y3.372 Z-0.420
G01 X2.505 Y3.530 Z-0.500
G00 Z20.000
G00 X5.809 Y5.711  
G00 X5.809 Y5.711 Z2.000 
G01 Z-0.500 F100.0 M3 G4 P2
G01 X5.621 Y5.711  F150.0
G01 X5.433 Y5.817 Z-0.317
G01 X5.210 Y5.920 Z-0.139
G01 X5.080 Y5.950 Z-0.087
G01 X4.987 Y5.956 Z-0.076
G01 X4.944 Y6.000 Z0.000
G01 X4.987 Y5.956 Z-0.076
G01 X4.944 Y5.918 Z0.000
G01 X4.987 Y5.956 Z-0.076
G01 X5.097 Y5.947 Z-0.092
G01 X5.246 Y5.907 Z-0.161
G01 X5.460 Y5.803 Z-0.341
G01 X5.621 Y5.711 Z-0.500
G01 X6.465 Y4.189 
G01 X6.455 Y3.289 
G01 X6.283 Y3.154 Z-0.267
G01 X6.173 Y3.096 Z-0.166
G01 X6.085 Y3.066 Z-0.115
G01 X5.974 Y3.047 Z-0.081
G01 X5.735 Y3.041 Z-0.071
G01 X5.694 Y3.082 Z0.000
G01 X5.735 Y3.041 Z-0.071
G01 X5.694 Y3.000 Z0.000
G01 X5.735 Y3.041 Z-0.071
G01 X5.987 Y3.048 Z-0.084
G01 X6.107 Y3.072 Z-0.125
G01 X6.208 Y3.112 Z-0.194
G01 X6.346 Y3.198 Z-0.342
G01 X6.455 Y3.289 Z-0.500
G01 X6.617 Y3.289 
G01 X6.803 Y3.144 Z-0.249
G01 X6.899 Y3.096 Z-0.166
G01 X6.994 Y3.065 Z-0.112
G01 X7.097 Y3.046 Z-0.080
G01 X7.336 Y3.041 Z-0.071
G01 X7.377 Y3.000 Z0.000
G01 X7.336 Y3.041 Z-0.071
G01 X7.377 Y3.082 Z0.000
G01 X7.336 Y3.041 Z-0.071
G01 X7.084 Y3.048 Z-0.083
G01 X6.975 Y3.070 Z-0.121
G01 X6.867 Y3.110 Z-0.190
G01 X6.734 Y3.190 Z-0.330
G01 X6.617 Y3.289 Z-0.500
G01 X6.608 Y4.193 
G01 X6.802 Y4.296 Z-0.192
G01 X6.874 Y4.364 Z-0.145
G01 X7.474 Y5.371 Z-0.151
G01 X7.626 Y5.647 Z-0.178
G01 X7.662 Y5.735 Z-0.208
G01 X7.690 Y5.837 Z-0.283
G01 X7.853 Y5.910 Z-0.156
G01 X7.980 Y5.943 Z-0.100
G01 X8.079 Y5.954 Z-0.079
G01 X8.125 Y5.918 Z0.000
G01 X8.079 Y5.954 Z-0.079
G01 X8.125 Y6.000 Z0.000
G01 X8.079 Y5.954 Z-0.079
G01 X7.964 Y5.939 Z-0.105
G01 X7.818 Y5.897 Z-0.178
G01 X7.690 Y5.837 Z-0.283
G01 X7.549 Y5.912 Z-0.152
G01 X7.386 Y5.948 Z-0.090
G01 X7.253 Y5.956 Z-0.075
G01 X7.209 Y6.000 Z0.000
G01 X7.253 Y5.956 Z-0.075
G01 X7.209 Y5.918 Z0.000
G01 X7.253 Y5.956 Z-0.075
G01 X7.400 Y5.946 Z-0.094
G01 X7.549 Y5.912 Z-0.152
G01 X7.690 Y5.837 Z-0.283
G01 X7.656 Y5.720 Z-0.202
G01 X7.574 Y5.544 Z-0.160
G01 X7.415 Y5.268 Z-0.147
G01 X6.874 Y4.364 Z-0.145
G01 X6.802 Y4.296 Z-0.192
G01 X6.608 Y4.193 Z-0.500
G01 X6.549 Y4.269 
G01 X5.859 Y5.551 
G01 X5.809 Y5.711 
G01 X5.980 Y5.879 Z-0.210
G01 X6.112 Y5.938 Z-0.107
G01 X6.203 Y5.954 Z-0.079
G01 X6.341 Y5.959 Z-0.071
G01 X6.382 Y5.918 Z0.000
G01 X6.341 Y5.959 Z-0.071
G01 X6.382 Y6.000 Z0.000
G01 X6.341 Y5.959 Z-0.071
G01 X6.189 Y5.953 Z-0.082
G01 X6.086 Y5.930 Z-0.121
G01 X5.980 Y5.879 Z-0.210
G01 X5.809 Y5.711 Z-0.500
G00 Z20.000
G00 X7.083 Y-3.429  
G00 X7.083 Y-3.429 Z2.000 
G01 Z-0.310 F100.0 M3 G4 P2
G01 X7.131 Y-3.603 Z-0.288 F150.0
G01 X7.126 Y-3.789 Z-0.249
G01 X7.082 Y-3.968 Z-0.209
G01 X6.955 Y-4.237 Z-0.161
G01 X6.771 Y-4.504 Z-0.118
G01 X6.394 Y-4.932 Z-0.094
G01 X6.149 Y-5.179 Z-0.107
G01 X6.107 Y-5.284 Z-0.186
G01 X6.107 Y-5.347 Z-0.265
G01 X5.849 Y-5.452 Z-0.083
G01 X5.801 Y-5.432 Z0.000
G01 X5.849 Y-5.452 Z-0.083
G01 X5.801 Y-5.500 Z0.000
G01 X5.849 Y-5.452 Z-0.083
G01 X6.107 Y-5.347 Z-0.265
G01 X6.194 Y-5.361 Z-0.241
G01 X6.854 Y-5.361 Z-0.241
G01 X7.171 Y-5.350 Z-0.260
G01 X7.276 Y-5.500 Z0.000
G01 X7.171 Y-5.350 Z-0.260
G01 X7.315 Y-5.197 Z-0.116
G01 X7.401 Y-5.054 Z-0.061
G01 X7.451 Y-5.019 Z0.000
G01 X7.401 Y-5.054 Z-0.061
G01 X7.383 Y-5.019 Z0.000
G01 X7.401 Y-5.054 Z-0.061
G01 X7.305 Y-5.210 Z-0.125
G01 X7.171 Y-5.350 Z-0.260
G01 X6.846 Y-5.361 Z-0.241
G01 X6.194 Y-5.361 
G01 X6.107 Y-5.347 Z-0.265
G01 X6.107 Y-5.284 Z-0.186
G01 X6.149 Y-5.179 Z-0.107
G01 X6.396 Y-4.929 Z-0.094
G01 X6.717 Y-4.573 Z-0.116
G01 X6.908 Y-4.313 Z-0.142
G01 X7.036 Y-4.081 Z-0.189
G01 X7.093 Y-3.934 Z-0.219
G01 X7.131 Y-3.761 Z-0.257
G01 X7.131 Y-3.603 Z-0.288
G01 X7.083 Y-3.429 Z-0.310
G01 X6.973 Y-3.272 Z-0.304
G01 X6.843 Y-3.172 Z-0.288
G01 X6.705 Y-3.114 Z-0.269
G01 X6.502 Y-3.093 Z-0.238
G01 X6.371 Y-3.116 Z-0.226
G01 X6.261 Y-3.156 Z-0.197
G01 X6.101 Y-3.274 Z-0.149
G01 X5.986 Y-3.436 Z-0.098
G01 X5.918 Y-3.618 Z-0.064
G01 X5.873 Y-3.654 Z0.000
G01 X5.918 Y-3.618 Z-0.064
G01 X5.941 Y-3.654 Z0.000
G01 X5.918 Y-3.618 Z-0.064
G01 X5.986 Y-3.436 Z-0.098
G01 X6.101 Y-3.274 Z-0.149
G01 X6.274 Y-3.149 Z-0.200
G01 X6.473 Y-3.095 Z-0.236
G01 X6.631 Y-3.100 Z-0.255
G01 X6.806 Y-3.152 Z-0.286
G01 X6.952 Y-3.253 Z-0.301
G01 X7.060 Y-3.387 Z-0.307
G01 X7.083 Y-3.429 Z-0.310
G00 Z20.000
G00 X8.368 Y-3.869  
G00 X8.368 Y-3.869 Z2.000 
G01 Z-0.307 F100.0 M3 G4 P2
G01 X8.143 Y-3.820 Z-0.306 F150.0
G01 X8.110 Y-3.707 Z-0.168
G01 X8.124 Y-3.618 Z-0.121
G01 X8.289 Y-3.283 Z-0.120
G01 X8.351 Y-3.217 Z-0.167
G01 X8.448 Y-3.157 Z-0.271
G01 X9.003 Y-3.157 
G01 X9.103 Y-3.313 Z0.000
G01 X9.003 Y-3.157 Z-0.271
G01 X9.247 Y-3.000 Z0.000
G01 X9.003 Y-3.157 Z-0.271
G01 X8.448 Y-3.157 
G01 X8.351 Y-3.000 Z0.000
G01 X8.448 Y-3.157 Z-0.271
G01 X8.351 Y-3.217 Z-0.167
G01 X8.289 Y-3.283 Z-0.120
G01 X8.124 Y-3.618 Z-0.121
G01 X8.110 Y-3.707 Z-0.168
G01 X8.143 Y-3.820 Z-0.306
G01 X7.871 Y-3.972 Z0.000
G01 X8.143 Y-3.820 Z-0.306
G01 X8.368 Y-3.869 Z-0.307
G01 X8.549 Y-3.935 Z-0.305
G01 X8.760 Y-4.067 Z-0.297
G01 X8.870 Y-4.168 Z-0.293
G01 X8.959 Y-4.283 Z-0.283
G01 X9.045 Y-4.467 Z-0.257
G01 X9.078 Y-4.673 Z-0.209
G01 X9.071 Y-4.803 Z-0.182
G01 X9.043 Y-4.932 Z-0.156
G01 X8.974 Y-5.079 Z-0.130
G01 X8.852 Y-5.231 Z-0.109
G01 X8.748 Y-5.316 Z-0.106
G01 X8.625 Y-5.383 Z-0.114
G01 X8.432 Y-5.435 Z-0.140
G01 X8.217 Y-5.427 Z-0.202
G01 X8.061 Y-5.381 Z-0.256
G01 X7.967 Y-5.327 Z-0.263
G01 X8.022 Y-5.183 Z0.000
G01 X7.967 Y-5.327 Z-0.263
G01 X7.926 Y-5.303 Z-0.227
G01 X7.879 Y-5.178 Z0.000
G01 X7.926 Y-5.303 Z-0.227
G01 X7.831 Y-5.208 Z0.000
G01 X7.914 Y-5.298 Z-0.209
G01 X7.799 Y-5.250 Z0.000
G01 X7.898 Y-5.295 Z-0.183
G01 X7.789 Y-5.299 Z0.000
G01 X7.926 Y-5.303 Z-0.227
G01 X7.942 Y-5.314 Z-0.248
G01 X7.814 Y-5.387 Z0.000
G01 X7.942 Y-5.314 Z-0.248
G01 X7.981 Y-5.339 Z-0.267
G01 X7.891 Y-5.468 Z0.000
G01 X7.981 Y-5.339 Z-0.267
G01 X8.078 Y-5.386 Z-0.249
G01 X8.266 Y-5.433 Z-0.181
G01 X8.432 Y-5.435 Z-0.140
G01 X8.625 Y-5.383 Z-0.114
G01 X8.760 Y-5.309 Z-0.107
G01 X8.878 Y-5.206 Z-0.115
G01 X8.992 Y-5.046 Z-0.131
G01 X9.047 Y-4.915 Z-0.158
G01 X9.077 Y-4.768 Z-0.193
G01 X9.073 Y-4.601 Z-0.229
G01 X9.024 Y-4.410 Z-0.263
G01 X8.928 Y-4.237 Z-0.291
G01 X8.838 Y-4.134 Z-0.299
G01 X8.704 Y-4.024 Z-0.304
G01 X8.479 Y-3.906 Z-0.299
G01 X8.368 Y-3.869 Z-0.307
G00 Z20.000
G00 X4.785 Y-4.205  
G00 X4.785 Y-4.205 Z2.000 
G01 Z-0.299 F100.0 M3 G4 P2
G01 X4.886 Y-4.084 Z-0.098 F150.0
G01 X5.137 Y-3.864 Z-0.152
G01 X5.219 Y-3.763 Z-0.171
G01 X5.281 Y-3.646 Z-0.203
G01 X5.300 Y-3.587 Z-0.220
G01 X5.314 Y-3.459 Z-0.224
G01 X5.293 Y-3.341 Z-0.207
G01 X5.203 Y-3.181 Z-0.157
G01 X5.059 Y-3.066 Z-0.114
G01 X4.882 Y-3.010 Z-0.093
G01 X4.771 Y-3.002 Z-0.093
G01 X4.584 Y-3.030 Z-0.101
G01 X4.418 Y-3.113 Z-0.132
G01 X4.293 Y-3.251 Z-0.168
G01 X4.235 Y-3.406 Z-0.211
G01 X4.235 Y-3.565 Z-0.247
G01 X4.274 Y-3.693 Z-0.267
G01 X4.346 Y-3.810 Z-0.275
G01 X4.440 Y-3.918 Z-0.281
G01 X4.703 Y-4.149 Z-0.299
G01 X4.603 Y-4.271 Z-0.097
G01 X4.454 Y-4.410 Z-0.115
G01 X4.330 Y-4.562 Z-0.159
G01 X4.249 Y-4.711 Z-0.205
G01 X4.219 Y-4.808 Z-0.235
G01 X4.203 Y-4.935 Z-0.244
G01 X4.225 Y-5.084 Z-0.232
G01 X4.302 Y-5.245 Z-0.194
G01 X4.415 Y-5.366 Z-0.151
G01 X4.506 Y-5.427 Z-0.125
G01 X4.617 Y-5.471 Z-0.104
G01 X4.807 Y-5.493 Z-0.084
G01 X5.004 Y-5.462 Z-0.087
G01 X5.171 Y-5.375 Z-0.112
G01 X5.285 Y-5.250 Z-0.145
G01 X5.350 Y-5.105 Z-0.193
G01 X5.362 Y-4.905 Z-0.242
G01 X5.299 Y-4.722 Z-0.279
G01 X5.213 Y-4.599 Z-0.294
G01 X5.085 Y-4.464 Z-0.297
G01 X4.785 Y-4.205 Z-0.299
G00 Z20.000
G00 X4.785 Y-4.205 Z2.000 
G01 Z-0.299 F100.0 M3 G4 P2
G01 X4.703 Y-4.149 Z-0.299 F150.0
G01 X4.423 Y-3.901 Z-0.280
G01 X4.313 Y-3.766 Z-0.278
G01 X4.259 Y-3.658 Z-0.265
G01 X4.230 Y-3.532 Z-0.241
G01 X4.243 Y-3.366 Z-0.203
G01 X4.311 Y-3.226 Z-0.161
G01 X4.429 Y-3.105 Z-0.128
G01 X4.595 Y-3.027 Z-0.100
G01 X4.784 Y-3.002 Z-0.092
G01 X4.974 Y-3.031 Z-0.100
G01 X5.137 Y-3.117 Z-0.134
G01 X5.259 Y-3.263 Z-0.184
G01 X5.310 Y-3.414 Z-0.222
G01 X5.315 Y-3.483 Z-0.226
G01 X5.291 Y-3.619 Z-0.209
G01 X5.255 Y-3.706 Z-0.196
G01 X5.203 Y-3.785 Z-0.165
G01 X5.080 Y-3.919 Z-0.131
G01 X4.886 Y-4.084 Z-0.098
G01 X4.785 Y-4.205 Z-0.299
G00 Z20.000
G00 X4.785 Y-4.205 Z2.000 
G01 Z-0.299 F100.0 M3 G4 P2
G01 X5.098 Y-4.478 Z-0.296 F150.0
G01 X5.277 Y-4.685 Z-0.288
G01 X5.344 Y-4.829 Z-0.263
G01 X5.364 Y-5.007 Z-0.221
G01 X5.329 Y-5.166 Z-0.171
G01 X5.229 Y-5.321 Z-0.125
G01 X5.081 Y-5.431 Z-0.095
G01 X4.902 Y-5.486 Z-0.084
G01 X4.692 Y-5.485 Z-0.090
G01 X4.590 Y-5.462 Z-0.106
G01 X4.486 Y-5.417 Z-0.133
G01 X4.383 Y-5.341 Z-0.164
G01 X4.266 Y-5.185 Z-0.208
G01 X4.209 Y-5.007 Z-0.242
G01 X4.205 Y-4.906 Z-0.240
G01 X4.219 Y-4.808 Z-0.235
G01 X4.268 Y-4.667 Z-0.200
G01 X4.342 Y-4.544 Z-0.154
G01 X4.464 Y-4.400 Z-0.113
G01 X4.603 Y-4.271 Z-0.097
G01 X4.703 Y-4.149 Z-0.299
G01 X4.785 Y-4.205 Z-0.299
G00 Z20.000
M6 T2 (Drill 3 mm)
G43 H2
S5000 M03
G00 X0.000 Y10.000 Z10.000 F437.2
G00 X0.000 Y10.000 Z2.000 
G01 Z-2.000 F70.0 M3 G4 P2
G00 Z10.000
M6 T3 (End Mill 3 mm)
G43 H3
S5000 M03
G00 X0.000 Y14.000 Z10.000 F400.0
G00 X0.000 Y14.000 Z2.000 
G01 Z0.000 F100.0 M3 G4 P2
G01 Z-0.015 
G01 Z-0.030 
G01 Z-0.046 
G01 Z-0.061 
G01 Z-0.077 
G01 Z-0.092 
G01 Z-0.108 
G01 Z-0.124 
G01 Z-0.140 
G01 Z-0.156 
G01 Z-0.173 
G01 Z-0.189 
G01 Z-0.205 
G01 Z-0.222 
G01 Z-0.239 
G01 Z-0.255 
G01 Z-0.272 
G01 Z-0.289 
G01 Z-0.306 
G01 Z-0.323 
G01 Z-0.340 
G01 Z-0.358 
G01 Z-0.375 
G01 Z-0.392 
G01 Z-0.410 
G01 Z-0.427 
G01 Z-0.445 
G01 Z-0.462 
G01 Z-0.480 
G01 Z-0.497 
G01 Z-0.500 
G01 Z-0.503 
G01 Z-0.520 
G01 Z-0.538 
G01 Z-0.555 
G01 Z-0.573 
G01 Z-0.590 
G01 Z-0.608 
G01 Z-0.625 
G01 Z-0.642 
G01 Z-0.660 
G01 Z-0.677 
G01 Z-0.694 
G01 Z-0.711 
G01 Z-0.728 
G01 Z-0.745 
G01 Z-0.761 
G01 Z-0.778 
G01 Z-0.795 
G01 Z-0.811 
G01 Z-0.827 
G01 Z-0.844 
G01 Z-0.860 
G01 Z-0.876 
G01 Z-0.892 
G01 Z-0.908 
G01 Z-0.923 
G01 Z-0.939 
G01 Z-0.954 
G01 Z-0.970 
G01 Z-0.985 
G01 Z-1.000 
G03 X-14.000 Y0.000 I0.000 J-14.000
G03 X0.000 Y-14.000 I14.000 J0.000
G03 X14.000 Y0.000 I0.000 J14.000
G03 X0.000 Y14.000 I-14.000 J0.000
G00 Z10.000
(Begin Footer)
G00 Z20.000
M30
(End Footer)
%
